!!!COM: Vivaldi, Antonio Lucio
!!!CDT: 1678/03/04-1741/08/28
!!!OPR: 12 Sonatas for Violin and Bassoc continuo
!!!OTL: Sonata in G minor, op. @{OPS}, no. @{ONM} (@{SCT})
!!!OPS: 2
!!!ONM: 1
!!!OMV: 4. Corrente
!!!SCT: RV 27
!!!SCA: Antonio Vivaldi: Thematisch-systematisches Verzeichnis seiner Werke (Ryom-Verzeichnis)
!!!OMD: Allegro
!!!key: g
**kern	**fb	**kern	**dynam
*part2	*	*part1	*
*staff2	*	*staff1	*
*ICklav	*	*ICstr	*
*Icemba	*	*Ivioln	*
*I"Basso continuo	*	*I"Violino	*
*I'bc	*	*I'v	*
*>[A,A,B,B]	*>[A,A,B,B]	*>[A,A,B,B]	*>[A,A,B,B]
*>norep[A,B]	*>norep[A,B]	*>norep[A,B]	*>norep[A,B]
*>A	*>A	*>A	*>A
*clefF4	*	*clefG2	*
*k[b-]	*	*k[b-]	*
*g:	*	*g:	*
*M3/8	*	*M3/8	*
*MM108	*	*MM108	*
=1	=1	=1	=1
4.r	.	16r	.
.	.	16g/LL	.
.	.	16b-y/	.
.	.	16a/	.
.	.	16b-y/	.
.	.	16g/JJ	.
=2	=2	=2	=2
4.r	.	8a/L	.
.	.	8dd/	.
.	.	8d/J	.
=3	=3	=3	=3
16r	.	8b-y\L	.
16GG/LL	.	.	.
16BB-y/	.	8g\	.
16AA/	.	.	.
16BB-y/	.	[8gg\J	.
16GG/JJ	.	.	.
=4	=4	=4	=4
8AA/L	7	8gg\L]	.
8D/	#	16ff#X\L	.
.	.	16ee\J	.
8DD/J	.	8ff#X\J	.
=5	=5	=5	=5
8BB-y/L	6	8gg\L	.
8GG/	.	8g\J	.
[8G/J	.	8r	.
=6	=6	=6	=6
8G\L]	.	8dd\L	.
16F#X\L	6	8a\	.
16E\J	.	.	.
8F#y\J	5	[8cc\J	.
=7	=7	=7	=7
8G\L	5 4	8cc\L]	.
8D\	6 4	8b-y\	.
[8Fn\J	6	8a\J	.
=8	=8	=8	=8
8F\L]	4 2	8g\L	.
8E-X\	.	8gg\	.
8D\J	.	8g\J	.
=9	=9	=9	=9
8C\L	.	8ee-X\L	.
8c\	-	8a\	.
8C\J	.	8aa\J	.
=10	=10	=10	=10
16D/LL	#	8ff#X\L	.
16E-X/	.	.	.
16D/	.	8dd\	.
16C/J	.	.	.
8BB-y/J	6	[8gg\J	.
!!LO:LB:g=original
=11	=11	=11	=11
8C/L	7 5 -	8gg\L]	.
8D/	5 4	8d\	.
8DD/J	#	8ff#X\J	.
=12	=12	=12	=12
8GG/	.	8gg\L	.
8r	.	16dd\L	.
.	.	16ee\J	.
8r	.	[8ffn\J	.
=13	=13	=13	=13
8c\L	6 4	8ff\]	.
16G\L	6	4ee\	.
16A\J	.	.	.
[8B-y\J	6 4	.	.
=14	=14	=14	=14
8B-y\]	5 3	8ff\L	.
4A\	6	16cc\L	.
.	.	16dd\J	.
.	5-r	[8ee-X\J	.
=15	=15	=15	=15
8B-y\L	5 4-r	8ee-y\]	.
16F\L	6	4dd\	.
16G\J	.	.	.
[8A\J	.	.	.
.	6 4	.	.
=16	=16	=16	=16
8A\L]	5-r 3	8ee-X\L	.
8F\	.	16ff\L	.
.	.	16ee-X\J	.
8B-y\J	.	[8dd\J	.
=17	=17	=17	=17
8A\L	6 4	8dd\L]	.
8AA\	5 3	8cc\	.
8A\J	6	8ff\J	.
=18	=18	=18	=18
8B-y\L	5	8dd\L	.
8BB-y\	.	8d\	.
8B-y\J	6	8gg\J	.
=19	=19	=19	=19
8c\L	5	8r	.
8C\	.	8e\L	.
8c\J	6	8aa\J	.
=20	=20	=20	=20
8d\L	5	8r	.
8D\	.	8f\L	.
[8d\J	6	8bb-y\J	.
=21	=21	=21	=21
8d\L]	4 2	8ee\L	.
16c\L	.	8e\	.
16B-y\J	.	.	.
[8c\J	6	8aa\J	.
=22	=22	=22	=22
8c\L]	4 2	8dd\L	.
16B-y\L	.	8d\	.
16A\J	.	.	.
[8B-y\J	6	8gg\J	.
!!LO:LB:g=original
=23	=23	=23	=23
8B-y\L]	.	(8ee-X\L	.
16A\L	#	8cc#X\)	.
16G\J	.	.	.
8F\J	6	[8dd\J	.
=24	=24	=24	=24
8G\L	7 5	16dd\LL]	.
.	.	16een\J	.
8A\	5 4	8.ee\t	.
8AA\J	#	.	.
.	.	16dd\Jk	.
=25	=25	=25	=25
4.D\	.	4.dd\	.
=26:|!|:	=26:|!|:	=26:|!|:	=26:|!|:
*>B	*>B	*>B	*>B
4.r	.	16r	.
.	.	16dd\LL	.
.	.	16ff\	.
.	.	16ee\	.
.	.	16ff\	.
.	.	16dd\JJ	.
=27	=27	=27	=27
4.r	.	8ee\L	.
.	.	8aa\	.
.	.	8a\J	.
=28	=28	=28	=28
16r	.	8ff\L	.
16D\LL	.	.	.
16F\	.	8dd\	.
16E\	.	.	.
16F\	.	[8ddd\J	.
16D\JJ	.	.	.
=29	=29	=29	=29
8E\L	7	8ddd\L]	.
8A\	7 #	16ccc#X\L	.
.	.	16bbn\J	.
8AA\J	.	8ccc#X\J	.
=30	=30	=30	=30
8F\L	6	8ddd\L	.
8D\	.	8dd\J	.
[8d\J	.	8r	.
=31	=31	=31	=31
8d\L]	5 2	8aa\L	.
16c#X\L	.	8ee\	.
16Bn\J	.	.	.
8c#y\J	6	16aa\L	.
.	.	16gg\JJ	.
=32	=32	=32	=32
8d\L	#	8ff#X\L	.
8A\	.	(8.ff#y\t	.
16d\L	.	.	.
16cn\JJ	.	32ee\LL	.
.	.	32ff#X\JJJ)	.
=33	=33	=33	=33
8Bn\L	6	8gg\L	.
(8.B\	.	8dd\	.
.	.	16gg\L	.
32A\LL	.	16ff\JJ	.
32B\JJJ)	.	.	.
!!LO:LB:g=original
=34	=34	=34	=34
8c\L	.	8ee\L	.
8G\	.	(8.ee\t	.
16c\L	.	.	.
16B-y\JJ	.	32dd\LL	.
.	.	32ee\JJJ)	.
=35	=35	=35	=35
8A\L	6	8ff\L	.
(8.A\	.	8cc\	.
.	.	16ff\L	.
32G\LL	.	16ee-X\JJ	.
32A\JJJ)	.	.	.
=36	=36	=36	=36
8B-y\L	.	8dd/L	.
8F\	.	8d/	.
16B-y\L	.	[8ff/J	.
16A\JJ	.	.	.
=37	=37	=37	=37
8G\L	7	8ff\L]	.
8GG\	6-r	8ee-X\	.
[8B-y\J	5	8dd\J	.
=38	=38	=38	=38
8B-y\L]	4-r 2	8cc/L	.
8A\	.	8c/	.
8G\J	6-r 4	[8ee-X/J	.
=39	=39	=39	=39
8F/L	7-r 3	8ee-y\L]	.
8FF/	6	8dd\	.
[8A/J	.	8cc\J	.
=40	=40	=40	=40
8A\L]	4 2	8b-y/L	.
8G\	.	8B-y/	.
8F\J	6	[8dd/J	.
=41	=41	=41	=41
8E-X/L	7	8dd\L]	.
8EE-X/	6	8cc\	.
8G/J	6-r	8b-y\J	.
=42	=42	=42	=42
4F\	.	8a/L	.
.	.	8f/	.
8D\	6	[8b-y/J	.
=43	=43	=43	=43
8E-X/L	7 5	8b-y/L]	.
8EE-y/	.	8g/	.
8En/J	6	[8cc/J	.
=44	=44	=44	=44
8F/L	5	8cc\L]	.
8FF/	.	8a\	.
8F#X/J	6	[8dd\J	.
=45	=45	=45	=45
8G/L	5	8dd\L]	.
8GG/	.	8b-y\	.
8G/J	6-r	[8ee-X\J	.
!!LO:LB:g=original
=46	=46	=46	=46
8A\L	5-r	8ee-y\L]	.
8AA\	.	8cc\	.
8A\J	6	8ff\J	.
=47	=47	=47	=47
8B-y\L	.	(8dd\L	.
8G\	.	8b-y\)	.
8E-X\J	6	8gg\J	.
=48	=48	=48	=48
8.F\L	.	8a\L	.
.	.	(8ff\	.
16E-X\k	.	.	.
8D\J	6	8b-y\J)	.
=49	=49	=49	=49
8E-X/L	6 5	8gg\	.
8F/	5 4	4cc\T	.
8FF/J	3	.	.
=50	=50	=50	=50
4BB-y/	.	8b-y/L	.
.	.	8B-y/	.
8F\	6	8dd/J	.
=51	=51	=51	=51
8D\L	.	8ff\L	.
8G\	n	(8.bn\t	.
8F\J	.	.	.
.	.	32a\LL	.
.	.	32bn\JJJ)	.
=52	=52	=52	=52
4E-X\	6	8cc/L	.
.	.	8c/	.
8G\	6 4	8ee-X/J	.
=53	=53	=53	=53
8En\L	6	8gg\L	.
8A\	#	(8.cc#X\t	.
8G\J	4#| 2	.	.
.	.	32bn\LL	.
.	.	32cc#X\JJJ)	.
=54	=54	=54	=54
8F#X\L	6	8dd/L	.
8d\	.	8d/J	.
8c\J	4#| 2	8r	.
=55	=55	=55	=55
8Bn\L	6	8r	.
8BBn\	.	8gg\L	.
8B\J	.	8ff\J	.
=56	=56	=56	=56
8c\L	.	8ee/L	.
(16c\L	.	8e/	.
16B-X\)	.	.	.
(16c\	.	8ee/J	.
16B-y\JJ)	.	.	.
=57	=57	=57	=57
8A\L	6	8ff\L	.
8AA\	.	(16ff\L	.
.	.	16ee-X\)	.
8A\J	5-r	(16ff\	.
.	.	16ee-X\JJ)	.
!!LO:LB:g=original
=58	=58	=58	=58
8B-y\L	.	8dd/L	.
8B-y\	.	8d/	.
8A\J	6 4	8dd/J	.
=59	=59	=59	=59
8G/L	6-r	8ee-X\L	.
8GG/	.	8ee-y\	.
8G/J	5	8dd\J	.
=60	=60	=60	=60
8A\L	.	8cc/L	.
(16A\L	.	8c/	.
16G\)	.	.	.
(16A\	.	8cc/J	.
16G\JJ)	.	.	.
=61	=61	=61	=61
8F#X/L	6	8dd\L	.
8FF#X/	.	(16dd\L	.
.	.	16cc\)	.
8F#y/J	.	(16dd\	.
.	.	16cc\JJ)	.
=62	=62	=62	=62
4G\	.	8b-y\L	.
.	.	8g\	.
8BB-y/	6	[8gg\J	.
=63	=63	=63	=63
8C/L	7 5 -	8gg\L]	.
8D/	5 4	8d\	.
8DD/J	#	8ff#X\J	.
=64	=64	=64	=64
8G/L	5	4G/	.
8GG/	.	.	.
[8G/J	6-r	8ee-X\	p
=65	=65	=65	=65
8G\L]	4 2	8a/L	.
16F\L	.	8A/	.
16E-X\J	.	.	.
[8F\J	6	8dd/J	.
=66	=66	=66	=66
8F\L]	4 2	8g/L	.
16E-X\L	.	8G/	.
16D\J	.	.	.
[8E-y\J	6	8cc/J	.
=67	=67	=67	=67
8E-y/L]	4-r 2	(8a-X/L	.
16D/L	#	8f#X/)	.
16C/J	.	.	.
8BB-y/J	6	[8g/J	.
=68	=68	=68	=68
8C/L	6 5 -	16g/LL]	.
.	.	16a/J	.
8D/	5 4	8.a/t	.
8DD/J	#	.	.
.	.	16g/Jk	.
=69	=69	=69	=69
4.GG/;	.	4.g/;	.
=:|!	=:|!	=:|!	=:|!
*-	*-	*-	*-
!!!SMS: RV 27 / Estienne Roger, Amsterdam [facs.]
!!!ENC: Fran Bennion; rev. E Correia (4/21)
!!!END: 2004/11/15
!!!ONB: Converted from MuseData with musedata2hum on Sat May 11 12:07:51 2024
!!!YEM: (C) 2004, 2004 Center for Computer Assisted Research in the Humanities.
!!!system-decoration: [(s1,s2)]
!!!URL-info: https://wiki.ccarh.org/wiki/MuseData:_Antonio_Vivaldi#Op._2:_Sonate_a_violino_e_basso_per_il_cembalo
!!!URL-pdf: https://pdf.musedata.org/vivaldi-op02-no01.pdf#page=4 MuseData edition
!!!URL-pdf: http://conquest.imslp.info/files/imglnks/usimg/b/b7/IMSLP99075-PMLP183164-Vivaldi_-_Sonatas_Op2.pdf#page=4 Estienne Roger Amsterdam: Estienne Roger, No.2, n.d.[1711].
!!!URL-youtube: https://www.youtube.com/watch?v=SiijZmW9jKM&t=2411s L'Arte dell'Arco
!!!title: @{OTL}, mov. @{OMV}
!!!filter-chint: chint -mid
!!!EEV: 2024/05/11
!!!source-file: https://bitbucket.org/musedata/vivaldi/src/master/roger/op2/no01/stage2/04/01
!!!source-file: https://bitbucket.org/musedata/vivaldi/src/master/roger/op2/no01/stage2/04/02
